X:1
T:Title
%%score ( 1 2 3 ) { 4 | 5 }
L:1/8
Q:1/4=108
M:2/4
K:C
V:1 treble nm="Grand Piano, Staff"
V:2 treble 
V:3 treble 
V:4 bass nm="Choir Pad, Baptism, LM"
V:5 bass 
V:1
 [CE]2 [CE]2 | [CE]2 [CA]2 | [CG]2 [FB]2- | [FB][Fc] [Fd]2 | [FG]2 [Ee]2 | [Ec]2 [Ec]2 | z2 A2- | %7
w: By~Peter~Christian~Lutkin~(1858\-1931) *|||||||
 A z z2 | [DG]2 [DA]2 | [B,D]2 [CG]2 | [C^G]2 [CA]2 | [B,D]2 [CG]2 | [CG]2 [CG]2 | [CF]2 [^CG]2 | %14
w: |||||||
 z2 E2- | E z z2 | z4 | z4 |] %18
w: ||||
V:2
 x4 | x4 | x4 | x4 | x4 | x4 | [GA]2 ^F2 | z B G2 | x4 | x4 | x4 | x4 | x4 | x4 | [DF]2 B,2 | %15
 z D C2- | C4- | C2 z2 |] %18
V:3
 x4 | x4 | x4 | x4 | x4 | x4 | x4 | ^F2 z2 | x4 | x4 | x4 | x4 | x4 | x4 | x4 | B,2 z2 | x4 | x4 |] %18
V:4
 G,2 G,2 | G,2 F,2 | G,2 G,2- | G,G, G,2 | G,2 G,2 | ^G,2 A,2 | E2 D2 | C2 B,2 | B,2[K:bass] B,2 | %9
 G,2 G,2 | ^F,2 =F,2 | G,2 G,2 | _B,2 B,2 | A,2 A,2 | A,2 G,2 | F,2 E,2- | E,4- | E,2 z2 |] %18
V:5
 C,2 C,2 | C,2 z2 | E,2 D,2- | D,C, B,,2 | B,,2 C,2 | C,2 C,2 | C,2 D,2 | D,2 G,2 | G,2 F,2 | %9
 F,2 E,2 | _E,2 D,2 | F,2 E,2 | E,2 F,2 | F,2 E,2 | D,2 G,,2 | G,,2 C,2- | C,4- | C,2 z2 |] %18

